component-icons/svg/error.svg

<?xml version="1.0" encoding="utf-8"?>
<!-- Generator: Adobe Illustrator 24.2.3, SVG Export Plug-In . SVG Version: 6.00 Build 0)  -->
<svg version="1.1" id="Layer_1" xmlns="http://www.w3.org/2000/svg" xmlns:xlink="http://www.w3.org/1999/xlink" x="0px" y="0px"
	 width="24px" height="24px" viewBox="0 0 24 24" enable-background="new 0 0 24 24" xml:space="preserve">
<path d="M0,22h11l2-2H0V22z M20,2h-2v8h2V2z M20,12h-2v2h2V12z M12,14l2-2H4v2H12z M22,4v12H2V6h14V4H0v14h24V4H22z"/>
</svg>

<svg id="Layer_1" data-name="Layer 1" xmlns="http://www.w3.org/2000/svg" viewBox="0 0 24 24"><defs><style>.cls-1{fill:gray;}</style></defs><path class="cls-1" d="M0,22H11l2-2H0ZM20,2H18v8h2Zm0,10H18v2h2Zm-8,2,2-2H4v2ZM22,4V16H2V6H16V4H0V18H24V4Z"/></svg>
